X:1
T:My Good Old Man
M:4/4
L:1/8
K:C
 z4 z2 z G| A3/2- G/2 F3/2 E/2 G3/2 F/2 E3/2 D/2| C2 C2 C3 C|D-D DD DE FG/2-G/2|\
 A2 G3/2 F/2 G3 G|G-c cc cB AG|A-G GEF-E DC| E2 G2 G2 F3/2 D/2| C3/2 D/2 E3/2 F/2 G2 c3/2 A/2|\
 G2 E2 G2 F3/2 D/2| C6|| z z/2 C/2| C3/2 D/2 E3/2 F/2 G2 c3/2 A/2|\
 G2 F2 G2 F3/2 D/2| C6- C z|
